ui/StatusQ/src/assets/img/icons/tiny/warning.svg

<svg fill="none" height="17" viewBox="0 0 16 17" width="16" xmlns="http://www.w3.org/2000/svg"><path clip-rule="evenodd" d="m15 8.5c0 3.866-3.134 7-7 7-3.86599 0-7-3.134-7-7 0-3.86599 3.13401-7 7-7 3.866 0 7 3.13401 7 7zm-5.75 4.25c0 .6904-.55964 1.25-1.25 1.25s-1.25-.5596-1.25-1.25.55964-1.25 1.25-1.25 1.25.5596 1.25 1.25zm-1.25-9.25c-.55228 0-1 .44772-1 1v4.5c0 .55228.44772 1 1 1s1-.44771 1-1v-4.5c0-.55228-.44772-1-1-1z" fill="#000" fill-rule="evenodd"/></svg>

<svg width="16" height="17" viewBox="0 0 16 17" fill="none" xmlns="http://www.w3.org/2000/svg">
<path fill-rule="evenodd" clip-rule="evenodd" d="M15 8.5C15 12.366 11.866 15.5 8 15.5C4.13401 15.5 1 12.366 1 8.5C1 4.63401 4.13401 1.5 8 1.5C11.866 1.5 15 4.63401 15 8.5ZM9.25 12.75C9.25 13.4404 8.69036 14 8 14C7.30964 14 6.75 13.4404 6.75 12.75C6.75 12.0596 7.30964 11.5 8 11.5C8.69036 11.5 9.25 12.0596 9.25 12.75ZM8 3.5C7.44772 3.5 7 3.94772 7 4.5V9C7 9.55228 7.44772 10 8 10C8.55228 10 9 9.55229 9 9V4.5C9 3.94772 8.55228 3.5 8 3.5Z" fill="black"/>
</svg>
